X: 27775
T: Morpeth Lasses, The
R: reel
M: 4/4
K: Aminor
E|ABcA EAAc|BGGd BGGB|ABcA EAAe|dBGB cAAG|
ABcA EAAc|BAGd BGGB|ABcA EAAe|dBGB cAAe||
agea ge a2|gedg BGdB|agea ge a2|gedB A3e|
agea ge a2|gedg BGdB|AcBd ce a2|g3B A3||

